X:0469
T:The Ragged Sailor.
M:9/8
L:1/8
Q:3/8=120
I: :: ::
Z:Jack Campin * www.campin.me.uk * 2009
K:G
B|GAB gfe dBG|ABd e2A A2B|GAB gfe  dBG       |ABc B2G G2::
g|ece dBd ece|dBd c2A A2g|ece dBd (g/f/e/f/)g|dAc B2G G2:|
<end>
<start>
